X:706
T:The king of the pipers
T:Frainc a'Phoill's
R:Jig
O:Ireland
D:Paddy Glackin: In Full Spate- slightly different & nicer...
D:Declan Masterson: Tropical Trad
D:Altan: Harvest Storm
D:Show the ladies
S:My arrangement from Altan and Show the ladies
Z:Transcription, arrangement, chords:Mike Long
M:6/8
L:1/8
K:G
"D"A2D "G"B2D|"D"A2G FED|"D"A2D "G"B2D|"C"GFG GFD|\
"D"A2D "G"B2D|"D"A2G FED|"C"GAB cAF|"G"GFG AFD:|
|:"D"dfa afd|"D"d^cd "A"ecA|"C"GAB cAF|"G"GFG AFD|\
"D"dfa afa|"C"geg "D"fdA|"C"GAB cAF|"G"GFG AFD:|
|:"D"d2e d2A|d2e dcA|d2e dcA|"C"GFG AFD|\
"D"d2e d2A|d2e dcA|"C"GAB cAF|"G"GFG AFD:|
|:"D"def def|"D"def "A"e^cA|"D"def def|"C"GFG AFD|\
"D"def def|"D"def "A"e^cA|"C"GAB cAF|"G"GFG AFD:|
|:"D"Ddd "C"Dcc|"G"DBB "D"DAA|"D"Ddd "C"Dcc|"(G)"GFG GFD|\
"D"Ddd "C"Dcc|"G"DBB "D"DAA|"C"GAB cAF|"G"GFG AFD:|
